X: 451
T: Ergenggu xiangdaoni jir jiao
L: 1/8
M: 2/4
K: C
d2d d [I:setbarnb 1]| 
ee2d | 
c2A G | 
E4 | 
d2d d | 
ee2d | 
c AE2 | 
d c/ A/ G A |]

@@@ Tune index: 9325
